X: 2195
T: Austen's
R: reel
M: 4/4
K: Amajor
|:EFAB c2 cA|EFAc d2 cA|EFAB c2 cB|Acfc ecBA|
EFAB cBcA|EFAc dcdA|1 cd e/f/g agaf|ecBd cAcA:|
2 cd e/f/g agaf|ecBd cA A2||
ec c/c/c ecac|bcac edBd|ec c/c/c ecac|bcac B2 cd|
ec c/c/c ecac|bcac ecBA|EFAB B/B/B af|ecBd cAga|
ec c/c/c ecac|bcac ecBA|[c3e3][ce] c/c/c eg|afec BA G2|
ec c/c/c ecac|bcac ecBA|EFAB B/B/B af|ecBd cAAF||

